!!!SOCIAL_FUNCTION:	songs with treatment of the sick
!!!PDT:	1956
!!!OTL: No_203_Song_Used_in_Treatment_of_Lumbago.krn
!!!LANG: Non-Tone
!!!LING_GROUP: Muskogean
!!!REG: Florida
**kern
*staff1
=1-
=
*clefF4
*k[b-e-]
*M3/4
2r
8f\L
8f\J
=2
2d\
8f\L
8f\J
=3||
*M2/4
2d\
=4
12c\L
12d\
12c\J
4B-\
=5
2c\
=6
2B-\
=7
8F\
8r
8F\
8r
=8:|!
*M3/4
8F\
2r
8f\
=9
=
*M2/4
2f\
=10
4d\
8f\L
8f\J
=11
[2d\
=12
4d\]
8f\L
8f\J
=13
2d\
=14
12c\L
12d\
12c\J
4B-\
=15
2c\
=16
2B-\
=17
8F\
4r
8f\
=18:|!
*M3/4
8F\
8r
2r
=19||
*M2/4
8f\L
8f\J
12f\L
12f\
12f\J
=20
4.f\
8e-\
=21||
*M3/4
4.c\
8e-\
8e-\
8r
=22||
*M2/4
8f\L
8f\J
12f\L
12f\
12f\J
=23
8f\L
[8e-\J
8e-\L]
8c\J
=24
4B-\
12c\L
12c\
24c\Jk
24r
=25
8f\L
8e-\J
8f\L
8e-\J
=26
8e-\L
[8c\J
8c\L]
8B-\J
=27
(12B-\L
24F\Jk)
24r
12B-\
12B-\L
24F\Jk
24r
12B-\
=28||
*M3/4
8.B-\L
16B-\Jk
8B-\
4r
8g\
=29!|:
4.f\
8g\
4f\
=30||
*M2/4
4f\
8r
8e-\
=31||
*M3/4
8e-\L
8d\J
8c\L
8B-\J
8.c\L
16B-\Jk
=32||
*M2/4
8.G\L
16B-\Jk
4B-\
=33
4B-\
8G\
8r
=34
12B-\L
12B-\
12B-\J
8.G\L
16B-\Jk
=35
4.B-\
8G\
=36
=
4B-\
8r
16g\LL
16g\JJ
=37:|!
8B-\
8r
4r
==
*-
